X: 96
T: The Master's Daughter
R:reel
C:Maurice Lennon
S:Stockton's Wing
Z:Barney
M:4/4
L:1/8
K:G
|GBde dB (3BBB|ABcA BG (3GGG|Ec (3ccc DGBe|dBGB ABcA
|GBde dB (3BBB|ABcA BG (3GGG|Ec (3ccc Dgfe|1dc BA G4:||2 dcBA Gdef||
g3 d ed (3ddd|dged ed (3ddd|G2 GB dB (3BBB|gedB A2 Bc|
d2 dedB (3BBB|ABcA BG (3GGG|Ec (3ccc Dgfe|1dc BA Gd ef:||2 dc BA G4||
